Printex-remake/img/icons/catalog_sliced/02.svg

<svg width="99" height="89" viewBox="0 0 99 89" fill="none" xmlns="http://www.w3.org/2000/svg">
<g clip-path="url(#clip0)">
<path d="M81.9238 51.5548L98.4182 54.4764L38.173 89.2564L21.6786 86.3348L81.9238 51.5548Z" fill="#D7C7ED"/>
<path d="M13.1954 65.6927L13.1954 66.6352L13.6667 67.1065L16.4943 76.0607L11.222 74.905L-9.06184e-05 73.139L13.1954 65.6927Z" fill="#D7C7ED"/>
<path d="M69.0805 2.51465L7.99796 37.7833L0.942383 72.7424L13.157 65.6926" stroke="black" stroke-linecap="round" stroke-linejoin="bevel"/>
<path d="M22.5825 86.4288L18.7049 85.292L12.2147 61.9227L6.9248 43.4077" stroke="black" stroke-linecap="round" stroke-linejoin="bevel"/>
<path d="M11.7451 36.4243L68.6977 3.54031L81.8504 49.5754L24.8978 82.4594L11.7451 36.4243Z" fill="#E5D4FC"/>
<path d="M8.49414 37.4747L69.5767 2.20605L83.6831 51.5794L22.6006 86.848L8.49414 37.4747Z" stroke="black" stroke-linejoin="bevel"/>
<path d="M20.1409 37.578C20.4823 38.9403 19.941 40.8366 18.9319 41.8135C17.9228 42.7904 16.828 42.4779 16.4867 41.1155C16.1453 39.7531 16.6867 37.8568 17.6957 36.88C18.7048 35.9031 19.7996 36.2156 20.1409 37.578Z" fill="#D7C7ED"/>
<path d="M28.0853 33.2391C28.4266 34.6015 27.8853 36.4978 26.8762 37.4746C25.8671 38.4515 24.7724 38.139 24.431 36.7766C24.0897 35.4143 24.631 33.518 25.6401 32.5411C26.6492 31.5643 27.7439 31.8768 28.0853 33.2391Z" fill="#D7C7ED"/>
<path d="M35.8421 28.891C36.1835 30.2533 35.6421 32.1496 34.6331 33.1265C33.624 34.1033 32.5292 33.7908 32.1879 32.4285C31.8465 31.0661 32.3878 29.1698 33.3969 28.193C34.406 27.2161 35.5008 27.5286 35.8421 28.891Z" fill="#D7C7ED"/>
<path d="M43.598 24.5428C43.9393 25.9052 43.398 27.8015 42.3889 28.7783C41.3798 29.7552 40.2851 29.4427 39.9437 28.0803C39.6024 26.718 40.1437 24.8217 41.1528 23.8448C42.1619 22.868 43.2566 23.1805 43.598 24.5428Z" fill="#D7C7ED"/>
<path d="M51.3538 20.1947C51.6952 21.557 51.1539 23.4533 50.1448 24.4302C49.1357 25.4071 48.0409 25.0946 47.6996 23.7322C47.3582 22.3698 47.8995 20.4735 48.9086 19.4967C49.9177 18.5198 51.0125 18.8323 51.3538 20.1947Z" fill="#D7C7ED"/>
<path d="M59.1107 15.847C59.452 17.2094 58.9107 19.1057 57.9016 20.0825C56.8925 21.0594 55.7978 20.7469 55.4564 19.3845C55.1151 18.0222 55.6564 16.1259 56.6655 15.149C57.6746 14.1722 58.7693 14.4847 59.1107 15.847Z" fill="#D7C7ED"/>
<path d="M66.8509 11.829C67.1923 13.1913 66.6509 15.0876 65.6418 16.0645C64.6327 17.0413 63.538 16.7288 63.1966 15.3665C62.8553 14.0041 63.3966 12.1078 64.4057 11.131C65.4148 10.1541 66.5096 10.4666 66.8509 11.829Z" fill="#D7C7ED"/>
<path d="M12.4249 35.7271C11.7286 34.3478 11.3106 32.8549 11.3105 31.4906C11.3104 28.3647 13.5049 27.0977 16.212 28.6607C18.9192 30.2238 21.1138 34.025 21.1139 37.151C21.114 39.5887 19.7795 40.8959 17.9081 40.6121" stroke="black"/>
<path d="M19.9649 31.0142C19.2687 29.6349 18.8506 28.142 18.8506 26.7777C18.8505 23.6518 21.045 22.3848 23.7521 23.9479C26.4592 25.5109 28.6538 29.3121 28.6539 32.4381C28.654 34.8758 27.3195 36.183 25.4481 35.8992" stroke="black"/>
<path d="M27.5059 26.3018C26.8097 24.9225 26.3916 23.4296 26.3916 22.0653C26.3915 18.9394 28.586 17.6724 31.2931 19.2355C34.0002 20.7985 36.1948 24.5997 36.1949 27.7257C36.195 30.1634 34.8606 31.4706 32.9891 31.1868" stroke="black"/>
<path d="M35.0459 21.5889C34.3497 20.2096 33.9317 18.7167 33.9316 17.3524C33.9315 14.2265 36.126 12.9595 38.8331 14.5226C41.5403 16.0856 43.7349 19.8869 43.735 23.0128C43.7351 25.4505 42.4006 26.7577 40.5292 26.4739" stroke="black"/>
<path d="M43.5284 17.8189C42.8322 16.4396 42.4141 14.9467 42.4141 13.5824C42.414 10.4565 44.6084 9.18947 47.3156 10.7525C50.0227 12.3156 52.2173 16.1168 52.2174 19.2428C52.2175 21.6805 50.883 22.9877 49.0116 22.7039" stroke="black"/>
<path d="M51.0694 13.106C50.3732 11.7267 49.9551 10.2338 49.9551 8.86953C49.955 5.74356 52.1495 4.47658 54.8566 6.03965C57.5637 7.60272 59.7583 11.4039 59.7584 14.5299C59.7585 16.9676 58.424 18.2748 56.5526 17.991" stroke="black"/>
<path d="M58.6094 8.39362C57.9132 7.0143 57.4952 5.5214 57.4951 4.15713C57.495 1.03116 59.6895 -0.235819 62.3966 1.32725C65.1037 2.89032 67.2984 6.69154 67.2985 9.81751C67.2985 12.2552 65.9641 13.5624 64.0927 13.2786" stroke="black"/>
<path d="M21.9239 53.9779L20.3635 48.4298L25.0141 45.7446L26.5745 51.2927L21.9239 53.9779Z" stroke="black"/>
<path d="M30.4073 49.265L28.8469 43.7169L33.4975 41.0317L35.0579 46.5799L30.4073 49.265Z" stroke="black"/>
<path d="M38.8897 44.5526L37.3294 39.0045L41.9799 36.3193L43.5403 41.8675L38.8897 44.5526Z" stroke="black"/>
<path d="M47.3731 39.8398L45.8128 34.2916L50.4633 31.6065L52.0237 37.1546L47.3731 39.8398Z" stroke="black"/>
<path d="M55.8556 35.1274L54.2952 29.5792L58.9457 26.8941L60.5061 32.4422L55.8556 35.1274Z" stroke="black"/>
<path d="M64.339 30.4145L62.7786 24.8664L67.4291 22.1812L68.9895 27.7293L64.339 30.4145Z" stroke="black"/>
<path d="M22.6211 57.6851L28.1708 54.4807L29.9731 60.8891L24.4234 64.0934L22.6211 57.6851Z" fill="white"/>
<path d="M31.1045 52.9727L36.6542 49.7683L38.4565 56.1767L32.9068 59.381L31.1045 52.9727Z" fill="white"/>
<path d="M39.5869 48.2598L45.1366 45.0554L46.939 51.4638L41.3892 54.6682L39.5869 48.2598Z" fill="white"/>
<path d="M48.0703 43.5469L53.62 40.3425L55.4224 46.7509L49.8726 49.9553L48.0703 43.5469Z" fill="white"/>
<path d="M56.5527 38.8345L62.1025 35.6301L63.9048 42.0385L58.3551 45.2429L56.5527 38.8345Z" fill="white"/>
<path d="M65.0361 34.1216L70.5859 30.9172L72.3882 37.3256L66.8385 40.53L65.0361 34.1216Z" fill="white"/>
</g>
<defs>
<clipPath id="clip0">
<rect width="107" height="98" fill="white" transform="translate(-5 -3)"/>
</clipPath>
</defs>
</svg>

<svg width="99" height="89" fill="none" xmlns="http://www.w3.org/2000/svg"><g clip-path="url(#clip0)"><path d="M81.924 51.555l16.494 2.921-60.245 34.78-16.494-2.921 60.245-34.78zM13.195 65.693v.942l.472.471 2.827 8.955-5.272-1.156L0 73.139l13.195-7.446z" fill="#D7C7ED"/><path d="M69.08 2.515L7.998 37.783.942 72.743l12.215-7.05" stroke="#000" stroke-linecap="round" stroke-linejoin="bevel"/><path d="M22.582 86.429l-3.877-1.137-6.49-23.37-5.29-18.514" stroke="#000" stroke-linecap="round" stroke-linejoin="bevel"/><path d="M11.745 36.424L68.698 3.54 81.85 49.575 24.898 82.46 11.745 36.424z" fill="#E5D4FC"/><path d="M8.494 37.475L69.577 2.206l14.106 49.373-61.082 35.269L8.494 37.475z" stroke="#000" stroke-linejoin="bevel"/><path d="M20.14 37.578c.342 1.362-.199 3.259-1.208 4.235-1.01.977-2.104.665-2.445-.698-.342-1.362.2-3.258 1.209-4.235 1.009-.977 2.104-.664 2.445.698zm7.945-4.338c.342 1.361-.2 3.258-1.209 4.235-1.009.977-2.104.664-2.445-.698-.341-1.363.2-3.259 1.21-4.236 1.008-.977 2.103-.664 2.444.698zm7.757-4.349c.342 1.362-.2 3.259-1.209 4.236-1.009.976-2.104.664-2.445-.699-.342-1.362.2-3.258 1.209-4.235 1.009-.977 2.104-.664 2.445.698zm7.756-4.348c.341 1.362-.2 3.259-1.21 4.235-1.008.977-2.103.665-2.444-.698-.342-1.362.2-3.258 1.209-4.235 1.009-.977 2.104-.665 2.445.698zm7.756-4.348c.341 1.362-.2 3.258-1.21 4.235-1.008.977-2.103.665-2.444-.698-.342-1.362.2-3.258 1.209-4.235 1.009-.977 2.104-.665 2.445.698zm7.756-4.348c.342 1.362-.2 3.259-1.208 4.236-1.01.976-2.104.664-2.446-.698-.34-1.363.2-3.26 1.21-4.236 1.009-.977 2.103-.664 2.445.698zm7.74-4.018c.342 1.362-.2 3.259-1.208 4.235-1.01.977-2.104.665-2.445-.697-.342-1.363.2-3.26 1.209-4.236 1.009-.977 2.104-.664 2.445.698z" fill="#D7C7ED"/><path d="M12.425 35.727c-.696-1.38-1.114-2.872-1.115-4.236 0-3.126 2.195-4.393 4.902-2.83 2.707 1.563 4.902 5.364 4.902 8.49 0 2.438-1.335 3.745-3.206 3.461m2.057-9.598c-.696-1.38-1.114-2.872-1.114-4.236 0-3.126 2.194-4.393 4.901-2.83 2.707 1.563 4.902 5.364 4.902 8.49 0 2.438-1.334 3.745-3.206 3.461m2.058-9.597c-.696-1.38-1.114-2.872-1.114-4.237 0-3.126 2.194-4.393 4.901-2.83C34 20.8 36.195 24.6 36.195 27.725c0 2.438-1.334 3.746-3.206 3.462m2.057-9.598c-.696-1.38-1.114-2.872-1.114-4.237 0-3.126 2.194-4.393 4.901-2.83 2.707 1.564 4.902 5.365 4.902 8.49 0 2.439-1.334 3.746-3.206 3.462m2.999-8.655c-.696-1.38-1.114-2.872-1.114-4.237 0-3.126 2.194-4.393 4.902-2.83 2.707 1.564 4.901 5.365 4.901 8.49 0 2.438-1.334 3.746-3.205 3.462m2.058-9.598c-.697-1.38-1.115-2.872-1.115-4.236 0-3.126 2.195-4.393 4.902-2.83 2.707 1.563 4.901 5.364 4.901 8.49 0 2.438-1.334 3.745-3.205 3.461m2.057-9.597c-.697-1.38-1.115-2.873-1.115-4.237 0-3.126 2.195-4.393 4.902-2.83 2.707 1.563 4.901 5.365 4.902 8.49 0 2.438-1.335 3.745-3.206 3.462M21.924 53.978l-1.56-5.548 4.65-2.685 1.56 5.548-4.65 2.685zm8.483-4.713l-1.56-5.548 4.65-2.685 1.56 5.548-4.65 2.685zm8.483-4.712l-1.56-5.548 4.65-2.686 1.56 5.548-4.65 2.686zm8.483-4.713l-1.56-5.548 4.65-2.686 1.56 5.549-4.65 2.685zm8.483-4.713l-1.56-5.548 4.65-2.685 1.56 5.548-4.65 2.685zm8.483-4.712l-1.56-5.549 4.65-2.685 1.56 5.548-4.65 2.686z" stroke="#000"/><path d="M22.621 57.685l5.55-3.204 1.802 6.408-5.55 3.204-1.802-6.408zm8.484-4.712l5.55-3.205 1.801 6.409-5.55 3.204-1.801-6.408zm8.482-4.713l5.55-3.205 1.802 6.409-5.55 3.204-1.802-6.408zm8.483-4.713l5.55-3.204 1.802 6.408-5.55 3.204-1.802-6.408zm8.483-4.713l5.55-3.204 1.802 6.408-5.55 3.205-1.802-6.409zm8.483-4.712l5.55-3.205 1.802 6.409-5.55 3.204-1.802-6.408z" fill="#fff"/></g><defs><clipPath id="clip0"><path fill="#fff" transform="translate(-5 -3)" d="M0 0h107v98H0z"/></clipPath></defs></svg>
